img/svg/net/tjusig.svg

<?xml version="1.0" encoding="iso-8859-1"?>
<!-- Generator: Adobe Illustrator 21.0.2, SVG Export Plug-In . SVG Version: 6.00 Build 0)  -->
<svg version="1.1" id="&#x56FE;&#x5C42;_1" xmlns="http://www.w3.org/2000/svg" xmlns:xlink="http://www.w3.org/1999/xlink" x="0px"
	 y="0px" viewBox="0 0 16 16" style="enable-background:new 0 0 16 16;" xml:space="preserve">
<path d="M1,1v14h14V1H1z M12,5v2H9l-3,5h4v2H2v-2l3-5H3l1.2-2h2L8,2h4l-1.8,3H12z"/>
</svg>

<svg xmlns="http://www.w3.org/2000/svg" viewBox="0 0 16 16"><title>tjusig</title><path d="M1,1V15H15V1ZM12,5V7H9L6,12h4v2H2V12L5,7H3L4.2,5h2L8,2h4L10.2,5Z"/></svg>
